docs/.gitbook/assets/icon-leaderboard-16@dark.svg

<svg width="32" height="32" viewBox="0 0 16 16" fill="none" xmlns="http://www.w3.org/2000/svg">
<rect x="0" y="0" width="16" height="16" fill="#181c1f"/>
<path fill-rule="evenodd" clip-rule="evenodd" d="M8.71333 1.51824C8.61292 1.20922 8.32496 1 8.00004 1C7.67512 1 7.38715 1.20922 7.28674 1.51824L6.94997 2.55471H5.86016C5.53524 2.55471 5.24727 2.76393 5.14687 3.07295C5.04646 3.38197 5.15645 3.72049 5.41932 3.91147L6.301 4.55205L5.96423 5.58853C5.86382 5.89754 5.97381 6.23607 6.23668 6.42705C6.49955 6.61803 6.85549 6.61803 7.11836 6.42705L8.00004 5.78647L8.88171 6.42705C9.14458 6.61803 9.50053 6.61803 9.76339 6.42705C10.0263 6.23607 10.1363 5.89754 10.0358 5.58853L9.69907 4.55205L10.5808 3.91147C10.8436 3.72049 10.9536 3.38197 10.8532 3.07295C10.7528 2.76393 10.4648 2.55471 10.1399 2.55471H9.0501L8.71333 1.51824ZM5.25 8C4.83579 8 4.5 8.33579 4.5 8.75V11H1.75C1.33579 11 1 11.3358 1 11.75V14.25C1 14.6642 1.33579 15 1.75 15H5.25H10.75H14.25C14.6642 15 15 14.6642 15 14.25V10.75C15 10.3358 14.6642 10 14.25 10H11.5V8.75C11.5 8.33579 11.1642 8 10.75 8H5.25ZM2.5 12.5H4.5V13.5H2.5V12.5ZM10 13.5H6V11.75V9.5H10V10.75V13.5ZM13.5 13.5H11.5V11.5H13.5V13.5Z" fill="#fff"/>
</svg>

<svg xmlns="http://www.w3.org/2000/svg" width="32" height="32" fill="none" viewBox="0 0 16 16"><path fill="#181c1f" d="M0 0h16v16H0z"/><path fill="#fff" fill-rule="evenodd" d="M8.713 1.518a.75.75 0 0 0-1.426 0L6.95 2.555H5.86a.75.75 0 0 0-.44 1.356l.881.641-.337 1.037a.75.75 0 0 0 1.154.838L8 5.787l.882.64a.75.75 0 0 0 1.154-.838l-.337-1.037.882-.64a.75.75 0 0 0-.441-1.357H9.05zM5.25 8a.75.75 0 0 0-.75.75V11H1.75a.75.75 0 0 0-.75.75v2.5c0 .414.336.75.75.75h12.5a.75.75 0 0 0 .75-.75v-3.5a.75.75 0 0 0-.75-.75H11.5V8.75a.75.75 0 0 0-.75-.75zM2.5 12.5h2v1h-2zm7.5 1H6v-4h4zm3.5 0h-2v-2h2z" clip-rule="evenodd"/></svg>
